outputs/icons/hardware/laptop_round.svg

<svg xmlns="http://www.w3.org/2000/svg" width="1200" height="1200" fill="none"><g clip-path="url(#a)"><path fill="#000" d="M1000 900c55 0 100-45 100-100V300c0-55-45-100-100-100H200c-55 0-100 45-100 100v500c0 55 45 100 100 100H50c-27.5 0-50 22.5-50 50s22.5 50 50 50h1100c27.5 0 50-22.5 50-50s-22.5-50-50-50zM250 300h700c27.5 0 50 22.5 50 50v400c0 27.5-22.5 50-50 50H250c-27.5 0-50-22.5-50-50V350c0-27.5 22.5-50 50-50"/></g><defs><clipPath id="a"><path fill="#fff" d="M0 0h1200v1200H0z"/></clipPath></defs></svg>

<svg width="1200" height="1200" viewBox="0 0 1200 1200" fill="none" xmlns="http://www.w3.org/2000/svg"><g clip-path="url(#clip0_238_1278)"><path d="M1000 900C1055 900 1100 855 1100 800V300C1100 245 1055 200 1000 200H200C145 200 100 245 100 300V800C100 855 145 900 200 900H50C22.5 900 0 922.5 0 950C0 977.5 22.5 1000 50 1000H1150C1177.5 1000 1200 977.5 1200 950C1200 922.5 1177.5 900 1150 900H1000ZM250 300H950C977.5 300 1000 322.5 1000 350V750C1000 777.5 977.5 800 950 800H250C222.5 800 200 777.5 200 750V350C200 322.5 222.5 300 250 300Z" fill="black"/></g><defs><clipPath id="clip0_238_1278"><path width="24" fill="white" d="M0 0H1200V1200H0V0z"/></clipPath></defs></svg>
